svgs/thin/route-highway.svg

<svg xmlns="http://www.w3.org/2000/svg" viewBox="0 0 448 512"><!--! Font Awesome Pro 6.0.0-alpha3 by @fontawesome - https://fontawesome.com License - https://fontawesome.com/license (Commercial License) --><path d="M428.4 269.3c-30.5-45.5-11.75-104.5 12.1-155.5C445.4 105.6 444.7 96 439.5 88.63l-41.12-58.25c-3.883-5.492-10.94-10.22-19.23-10.22c-2.652 0-5.418 .5088-8.266 1.599c-15.37 5.875-32.62 8.875-50.24 8.875c-29.5 0-59.87-8.5-83.12-26.12C233.5 1.5 228.8 0 224 0S214.5 1.5 210.5 4.5C187.3 22.12 156.9 30.62 127.4 30.62c-17.62 0-34.87-2.1-50.25-8.875C74.32 20.67 71.54 20.22 68.9 20.22c-8.355 0-15.46 4.736-19.26 10.15L8.521 88.75c-5.25 7.375-5.875 16.87-1.875 25.12C31.39 164.8 50.14 223.7 19.64 269.3c-37.1 56.5-18.62 139.4 38.75 166L224 512l165.6-76.75C446.1 408.6 466.4 325.8 428.4 269.3zM21.04 106.9C19.55 103.8 19.74 100.6 21.6 97.96l41.14-58.4c.3398-.4846 3.708-4.771 8.688-2.869c16.1 6.496 36.35 9.93 55.96 9.93c34.85 0 67.8-10.43 92.72-29.32c3.623-2.719 7.213-.4389 7.73-.0508c24.99 18.94 57.94 29.38 92.79 29.38c19.61 0 38.96-3.434 55.97-9.934c4.623-1.771 7.887 1.755 8.703 2.912l41.16 58.3c1.779 2.498 1.99 5.861 .5156 8.861C416.2 128.9 405 155.9 399.7 184H48.3C43.01 155.9 31.78 128.1 21.04 106.9zM382.9 420.7L224 494.4l-158.9-73.63c-21.46-9.957-37.92-30.56-45.17-56.53C11.72 334.7 16.56 302.5 32.94 278.2C49.31 253.7 52.97 226.7 50.42 200h347.2c-2.543 26.69 1.113 53.76 17.48 78.18c16.36 24.32 21.2 56.49 12.96 86.03C420.8 390.2 404.3 410.8 382.9 420.7z"/></svg>

<svg xmlns="http://www.w3.org/2000/svg" viewBox="0 0 448 512"><!-- Font Awesome Pro 6.0.0-alpha2 by @fontawesome - https://fontawesome.com License - https://fontawesome.com/license (Commercial License) --><path d="M428.355 269.25C397.859 223.75 416.607 164.75 441.355 113.75C445.355 105.625 444.73 96 439.48 88.625L398.359 30.375C394.476 24.883 387.437 20.178 379.142 20.178C376.49 20.178 373.708 20.66 370.861 21.75C355.488 27.625 338.24 30.625 320.617 30.625C291.119 30.625 260.746 22.125 237.499 4.5C233.499 1.5 228.749 0 223.999 0S214.501 1.5 210.501 4.5C187.253 22.125 156.88 30.625 127.384 30.625C109.761 30.625 92.513 27.625 77.138 21.75C74.32 20.67 71.556 20.195 68.917 20.195C60.562 20.195 53.441 24.959 49.642 30.375L8.521 88.75C3.271 96.125 2.646 105.625 6.646 113.875C31.394 164.75 50.142 223.75 19.644 269.25C-18.352 325.75 1.021 408.625 58.39 435.25L223.999 512L389.609 435.25C446.98 408.625 466.353 325.75 428.355 269.25ZM21.042 106.895C19.55 103.814 19.736 100.584 21.601 97.965L62.74 39.564C63.08 39.08 66.448 34.794 71.427 36.695C88.425 43.191 107.775 46.625 127.384 46.625C162.232 46.625 195.183 36.193 220.101 17.301C223.724 14.582 227.314 16.862 227.832 17.25C252.818 36.193 285.769 46.625 320.617 46.625C340.224 46.625 359.574 43.191 376.583 36.691C381.207 34.92 384.47 38.447 385.287 39.604L426.445 97.904C428.224 100.402 428.435 103.766 426.96 106.766C416.224 128.889 404.999 155.898 399.716 184H48.3C43.011 155.934 31.781 128.971 21.042 106.895ZM382.882 420.732L223.999 494.365L65.126 420.736C43.669 410.779 27.207 390.176 19.96 364.211C11.716 334.666 16.562 302.504 32.935 278.158C49.312 253.727 52.968 226.672 50.423 200H397.599C395.056 226.693 398.712 253.762 415.08 278.18C431.439 302.504 436.283 334.666 428.039 364.211C420.792 390.176 404.332 410.779 382.882 420.732Z"/></svg>
